X:1
T:THE PAPS OF JURA
M:C|
L:1/8
Q:80
C:John MacLellan DCM
S:Slow March
K:HP
|: {g}A3/4d/4 | \
{gfg}f2a3/4f/4{g}e3/4f/4 | \
{Gdc}d{e}A{GAG}A{gde}d3/4c/4 |
{g}B/4{d}G3/4{g}B3/4c/4{Gdc}d3/4e/4{g}f/4a3/4 | \
{ef}e2{A}e{g}A3/4d/4 | \
{gfg}f2a3/4f/4{g}e3/4f/4 |
{Gdc}d3/4e/4{gde}d3/4c/4{gBd}B{gf}g | \
{a}f/4a3/4{fg}f3/4d/4{g}A3/4{d}c/4{gef}e3/4c/4 | \
{Gdc}d2{gdc}d ::
{g}f3/4g/4 | \
{ag}a3/4A/4{gAGAG}A{gfg}f3/4A/4{gAGAG}A | \
{Gdc}d3/4e/4{gde}d3/4c/4{gBd}B{gde}d3/4c/4 |
{g}B/4{d}G3/4{g}B3/4c/4{Gdc}d3/4e/4{g}f/4a3/4 | \
{ef}e2{A}e|1 {g}f3/4g/4|1
{ag}a3/4A/4{gAGAG}A{gfg}f3/4A/4{gAGAG}A |
{Gdc}d3/4e/4{gde}d3/4c/4{gBd}B{gf}g | \
{a}f/4a3/4{fg}f3/4d/4{g}A3/4{d}c/4{gef}e3/4c/4 | \
{Gdc}d2{gdc}d:|2
{g}A3/4d/4 | \
{gfg}f2a3/4f/4{g}e3/4f/4 | \
{Gdc}d3/4e/4{gde}d3/4c/4{gBd}B{gf}g |
{a}f/4a3/4{fg}f3/4d/4{g}A3/4{d}c/4{gef}e3/4c/4 | \
{Gdc}d2{gdc}d|]
